X:65
T:Annie Laurie
% Four-part piano arrangement for standard notation.
C:Douglas of Fingland / Lady John Scott
S:Source "The One Hundred and One Best Songs" - The Cable Company - 1919 - Chicago, Illinois
M:4/4
L:1/4
Q:1/4=120
%%staves [(1 2) (3 4)]
K:C
V:1 clef=treble
E3/4D/4 | C>C c>B | B A2 A | G>E (ED/) C/ | D3 (E3/4 D/4) |
w:Max\-* wel-ton's braes are bon-nie, Where ear-ly fa's* the dew, And 'twas
w:Her* brow is like the snaw-drift, Her throat is like* the swan, her*
w:Like* dew on th'~gow-an ly-ing Is~th' fa' o'her fair-y feet, And like
V:2 clef=treble
C3/4B,/4 | C>C E>G | G F2 F | E>C (CB,/) C/ | B,3 B,3/4- B,/4 |
V:3 clef=bass
%%MIDI transpose -24
g3/4f/4 | e>e g>c' | c' c'2 c' | c'>g (gf/) e/ | g3 g3/4- g/4 |
V:4 clef=bass
%%MIDI transpose -24
c | c>c c>e | d d2 d | c>c c>c | G3 (g3/4 f/4) |
V:1
C>C c>B | B A2 A | G>E D>C | C2 z G |
w:there that An-nie Lau-rie Gi'ed me her prom-ise true; Gi'ed
w:face it is the fair-est That e'er the sun shone on; That
w:winds in sum-mer sigh-ing, Her voice is low and sweet; Her
V:2
C>C E>G | G F2 F | E>C B,>C | C2 z E |
V:3
g>g g>c' | c' c'2 c' | c'>g f>e | e2 z c' |
V:4
e>e c>e | f f2 f | g>g G>c | c2 z c |
V:1
c>c d>d | e3 G | c>c d>d | e3 e3/4 d/4 |
w:me her prom-ise true, Which ne'er for-got will be, And for
w:e'er the sun shone on, And dark blue is her e'e, And for
w:voice is low and sweet, And she's a'~the world to me, And for
V:2
G>G G>G | G3 G | E>E A>A | ^G3 =G3/4 F/4 |
V:3
c'>c' b>b | c'3 c' | c'>c' c'>b | b3 b3/4 b/4 |
V:4
e>e g>g | c3 e | a>a f>f | e3 =g3/4 g/4 |
V:1
c>B A c/A/ | G E2 E3/4D/4 | (C/ c) E/ D>C | C2-C/ z/ |]
w:bon-nie An-nie* Lau-rie I'd* lay* me doon and dee.*
V:2
E>G F F | E C2 C3/4B,/4 | C3/2 C/ B,>C | C2-C/ z/ |]
V:3
c'>c' c' a/c'/ | c' g2 g3/4f/4 | e>g f>e | e2-e/ z/ |]
V:4
a>e f f | c c2 c | c>c G>c | c2-c/ z/ |]

